img/logo.svg

<svg xmlns="http://www.w3.org/2000/svg" width="500" height="500"><path fill-rule="evenodd" clip-rule="evenodd" fill="#fff" d="M166.666 416.668h250.003v-250c0-46.023-37.312-83.332-83.336-83.332s-83.333 37.309-83.333 83.332v83.332h-83.331c-46.025 0-83.335 37.31-83.335 83.333 0 46.024 37.309 83.333 83.332 83.335m333.334-250.001v333.333h-333.334c-92.047 0-166.666-74.617-166.666-166.666 0-92.047 74.62-166.666 166.667-166.666.002-92.047 74.618-166.667 166.666-166.667 92.048-.001 166.666 74.62 166.667 166.666zm-500-166.667c81.634.001 239.862 35.786 158.956 139.858l-117.252-98.154 98.155 117.252c-104.073 80.906-139.859-77.321-139.859-158.956"/></svg>

<?xml version="1.0" encoding="utf-8"?>
<!-- Generator: Adobe Illustrator 16.0.0, SVG Export Plug-In . SVG Version: 6.00 Build 0)  -->
<!DOCTYPE svg PUBLIC "-//W3C//DTD SVG 1.1//EN" "http://www.w3.org/Graphics/SVG/1.1/DTD/svg11.dtd">
<svg version="1.1" id="Layer_1" xmlns="http://www.w3.org/2000/svg" xmlns:xlink="http://www.w3.org/1999/xlink" x="0px" y="0px"
	 width="500px" height="500px" viewBox="0 0 500 500" enable-background="new 0 0 500 500" xml:space="preserve">
<path fill-rule="evenodd" clip-rule="evenodd" fill="#FFFFFF" d="M166.666,416.668h250.003v-250
	c0-46.023-37.312-83.332-83.336-83.332S250,120.645,250,166.668L250,250h-83.331c-46.025,0-83.335,37.31-83.335,83.333
	C83.334,379.357,120.643,416.666,166.666,416.668 M500,166.667V500H166.666C74.619,500,0,425.383,0,333.334
	c0-92.047,74.62-166.666,166.667-166.666C166.669,74.621,241.285,0.001,333.333,0.001C425.381,0,499.999,74.621,500,166.667z M0,0
	c81.634,0.001,239.862,35.786,158.956,139.858L41.704,41.704l98.155,117.252C35.786,239.862,0,81.635,0,0"/>
</svg>
